X: 152
T: Rising of the Moon
M:4/4
R:march
L:1/8
Z:added by Alf warnock alf0@rogers.com - www.alfwarnock.info/alfs
K:A
%%text Verse
AB|"A"c2c2 c2c2|ce3 e2c2|"E7"c2B2 B2c2|B6ee|
"D"f2d2 a2g2|"A"f2e2 c3A|"E7"B2A2 A3B|"A"A8|
"F#m"c2c2 c2c2|ce3 e2c2|"E7"c2B2 B2c2|B6ee|
"D"f2d2 a2g2|"A"f2e2 c3A|"E7"B2A2 A3B|"A"A4 f2e2|
%%text Chorus
"A"c2c2 c2>c2|c4 f2e2|"E7"B2B2 B2>c2|B6ee|
"D"f2d2 a2g2|"A"f2e2 c3A|"E7"B2A2 A3B|"A"A8|

